icons/coronary_care_unit_fill.svg

<svg width="48" height="48" viewBox="0 0 48 48" fill="none" xmlns="http://www.w3.org/2000/svg">
<path fill-rule="evenodd" clip-rule="evenodd" d="M6 9C6 7.34315 7.34315 6 9 6H39C40.6569 6 42 7.34315 42 9V39C42 40.6569 40.6569 42 39 42H9C7.34315 42 6 40.6569 6 39V9ZM12.1892 20.2759C12.1892 15.9818 14.9707 12 18.7796 12C21.4227 12 23.384 13.7865 24.5946 16.3208C25.8052 13.7867 27.7664 12 30.4096 12C34.2189 12 37 15.9825 37 20.2759C37 29.4666 24.5946 36 24.5946 36C24.5946 36 16.3303 31.9109 13.2924 25.1954H17.0656L18.7399 22.2682L20.6958 29L25.2758 23.2092H29.9613C30.535 23.2092 31 22.7519 31 22.1878C31 21.6236 30.535 21.1663 29.9613 21.1663H24.2597L21.5688 24.5686L19.3698 17L15.8506 23.1525H12.564C12.3235 22.2329 12.1892 21.273 12.1892 20.2759ZM12.5541 23.1523L10 23.1526V25.1955H13.2847L12.5541 23.1523Z" fill="black"/>
</svg>

<svg
  xmlns="http://www.w3.org/2000/svg"
  width="24"
  height="24"
  viewBox="0 0 24 24"
  fill="none"
  stroke="currentColor"
  stroke-width="2"
  stroke-linecap="round"
  stroke-linejoin="round"
>
  <path
    fill-rule="evenodd"
    d="M6 9a3 3 0 0 1 3-3h30a3 3 0 0 1 3 3v30a3 3 0 0 1-3 3H9a3 3 0 0 1-3-3zm6.19 11.276c0-4.294 2.78-8.276 6.59-8.276 2.643 0 4.604 1.787 5.815 4.32 1.21-2.533 3.171-4.32 5.815-4.32 3.809 0 6.59 3.983 6.59 8.276C37 29.466 24.595 36 24.595 36s-8.265-4.09-11.303-10.805h3.774l1.674-2.927L20.696 29l4.58-5.79h4.685A1.03 1.03 0 0 0 31 22.187a1.03 1.03 0 0 0-1.039-1.022H24.26l-2.691 3.403-2.2-7.569-3.518 6.153h-3.287c-.24-.92-.375-1.88-.375-2.877m.364 2.876H10v2.043h3.285z"
    clip-rule="evenodd"
  />
</svg>
